packages/gestalt-icons-android/vr-theme/ic_vr_pause_gestalt.svg

<svg width="24" height="24" viewBox="0 0 24 24" fill="none" xmlns="http://www.w3.org/2000/svg">
<path d="M5 1C3.89543 1 3 1.89543 3 3V21C3 22.1046 3.89543 23 5 23H7C8.10457 23 9 22.1046 9 21V3C9 1.89543 8.10457 1 7 1H5Z" fill="black"/>
<path d="M17 1C15.8954 1 15 1.89543 15 3V21C15 22.1046 15.8954 23 17 23H19C20.1046 23 21 22.1046 21 21V3C21 1.89543 20.1046 1 19 1H17Z" fill="black"/>
</svg>

<svg xmlns="http://www.w3.org/2000/svg" width="24" height="24"><path d="M5 1a2 2 0 0 0-2 2v18c0 1.1.9 2 2 2h2a2 2 0 0 0 2-2V3a2 2 0 0 0-2-2zm12 0a2 2 0 0 0-2 2v18c0 1.1.9 2 2 2h2a2 2 0 0 0 2-2V3a2 2 0 0 0-2-2z"/></svg>
